X: 1
T: Reel Du Vieux Moulin
M: 4/4
L: 1/8
R: reel
K: Dmaj
D |: &quot;D&quot;D2 FD ADFF | &quot;G&quot;GABc &quot;D&quot;dcdD | &quot;D&quot;D2 FD ADFF | &quot;A&quot;EBGE BGED |
&quot;D&quot;D2 FD ADFF | &quot;G&quot;GABc &quot;D&quot;d2 A2 | &quot;D&quot;defd &quot;A&quot;edcB |1 AGFE D2 &quot;D&quot;zD :|2 AGFE &quot;D&quot;D2 zA ||
|: &quot;D&quot;dzdd defd | efed &quot;Bm&quot;B2 B2 | &quot;A&quot;efed Acec | &quot;D&quot; defd &quot;A&quot;gfeA | 
&quot;D&quot;dzdd defd | efed &quot;Bm&quot;B2 B2 | &quot;A&quot;efed Aceg |1 fdec &quot;D&quot;d2 zA :|2 fdec &quot;D&quot;d2 z2 |]
